X: 18
T:Merry Blacksmith
% Nottingham Music Database
S:FTB 1/16, via EF
M:4/4
L:1/4
K:D
P:A
[Ac]|"D"[df][d/2f/2][A/2d/2] [B/2d/2][A/2d/2][F/2A/2][A/2d/2]|"D"[A/2d/2][B/2d/2][d/2f/2][A/2d/2] [B/2d/2][A/2d/2][F/2A/2][A/2d/2]|\
"D"[A/2d/2][B/2d/2][d/2f/2][e/2g/2] "Bm"[fb][e/2g/2][d/2f/2]|"Em"[B/2e/2][e/2g/2][e/2g/2][d/2f/2] [F/2A/2]"A7"[e/2g/2][g/2a/2][f/2a/2][e/2g/2]|
"D"[d/2f/2][c/2e/2][d/2f/2][A/2d/2] [F/2A/2][B/2d/2][A/2d/2][F/2A/2][A/2d/2]|"D"[A/2d/2][B/2d/2][d/2f/2][A/2d/2] [B/2d/2][A/2d/2][F/2A/2][A/2d/2]|\
"G"[A/2c/2][B/2d/2][d/2g/2][e/2g/2] "A7"[f/2a/2][g/2a/2][e/2g/2][c/2e/2]|"D"[d/2f/2][B/2d/2][A/2d/2][F/2A/2]D:|
P:B
[f/2a/2][g/2b/2]|"D"[ad'][a/2d'/2][g/2b/2] [fa][f/2a/2][e/2g/2]|"D"[df][d/2f/2][A/2d/2] [B/2d/2][A/2d/2][F/2A/2][A/2d/2]|"D"[A/2d/2][B/2d/2][d/2f/2][e/2g/2] "Bm"[fb][e/2g/2][d/2f/2]|\
"Em"[B/2e/2][e/2g/2][e/2g/2][d/2f/2] [F/2A/2]"A7"[e/2g/2][g/2a/2][f/2a/2][e/2g/2]|
"D"[a/2d'/2][b/2d'/2][a/2d'/2][g/2b/2] [f/2a/2][g/2b/2][f/2a/2][e/2g/2]|"D"[d/2f/2][c/2e/2][d/2f/2][A/2d/2] [F/2A/2][B/2d/2][A/2d/2][F/2A/2][A/2d/2]|\
"G"[A/2c/2][B/2d/2][d/2g/2][e/2g/2] "A7"[f/2a/2][g/2a/2][e/2g/2][c/2e/2]|"D"[d/2f/2][B/2d/2][A/2d/2][F/2A/2]D:|


